Adwaita++/actions/symbolic/view-list-bullet-symbolic.svg

<svg height="16" width="16" xmlns="http://www.w3.org/2000/svg">
  <g fill="#474747">
    <path d="m2.384 3h1.231a.38.38 0 0 1 .385.379v1.241a.38.38 0 0 1 -.385.38h-1.23a.38.38 0 0 1 -.385-.379v-1.241a.38.38 0 0 1 .384-.38zm0 4.016h1.231a.38.38 0 0 1 .385.378v1.243a.38.38 0 0 1 -.385.379h-1.23a.38.38 0 0 1 -.385-.38v-1.241a.38.38 0 0 1 .384-.378zm0 3.984h1.231a.38.38 0 0 1 .385.379v1.242a.38.38 0 0 1 -.385.379h-1.23a.38.38 0 0 1 -.385-.379v-1.241a.38.38 0 0 1 .384-.38z"/>
    <path d="m6.494 3h7c.277 0 .5.223.5.5v1c0 .277-.223.5-.5.5h-7a.499.499 0 0 1 -.5-.5v-1c0-.277.223-.5.5-.5zm0 4h7c.277 0 .5.223.5.5v1c0 .277-.223.5-.5.5h-7a.499.499 0 0 1 -.5-.5v-1c0-.277.223-.5.5-.5zm0 4h7c.277 0 .5.223.5.5v1c0 .277-.223.5-.5.5h-7a.499.499 0 0 1 -.5-.5v-1c0-.277.223-.5.5-.5z"/>
  </g>
</svg>

<svg xmlns="http://www.w3.org/2000/svg" width="16" height="16">
    <g fill="#474747">
        <path d="M2.384 3h1.231A.38.38 0 0 1 4 3.379V4.62A.38.38 0 0 1 3.615 5h-1.23A.38.38 0 0 1 2 4.621V3.38A.38.38 0 0 1 2.384 3zM2.384 7.016h1.231A.38.38 0 0 1 4 7.394v1.243a.38.38 0 0 1-.385.379h-1.23A.38.38 0 0 1 2 8.636V7.395a.38.38 0 0 1 .384-.378zM2.384 11h1.231a.38.38 0 0 1 .385.379v1.242a.38.38 0 0 1-.385.379h-1.23A.38.38 0 0 1 2 12.621V11.38A.38.38 0 0 1 2.384 11z" style="marker:none" color="#000" overflow="visible"/>
        <path d="M6.494 3h7c.277 0 .5.223.5.5v1c0 .277-.223.5-.5.5h-7a.499.499 0 0 1-.5-.5v-1c0-.277.223-.5.5-.5zM6.494 7h7c.277 0 .5.223.5.5v1c0 .277-.223.5-.5.5h-7a.499.499 0 0 1-.5-.5v-1c0-.277.223-.5.5-.5zM6.494 11h7c.277 0 .5.223.5.5v1c0 .277-.223.5-.5.5h-7a.499.499 0 0 1-.5-.5v-1c0-.277.223-.5.5-.5z" style="marker:none"/>
    </g>
</svg>
